svg/justvector/itunes.svg

<svg xmlns="http://www.w3.org/2000/svg" viewBox="0 0 100 100" enable-background="new 0 0 100 100"><path d="m50 5c-24.852 0-45 20.15-45 45s20.15 45 45 45 45-20.15 45-45-20.15-45-45-45m0 81c-19.881 0-36-16.12-36-36s16.12-36 36-36 36 16.12 36 36-16.12 36-36 36m16.48-23.941c.289 3.828-2.584 7.313-6.422 7.791-3.832.475-7.184-2.24-7.471-6.068-.293-3.823 2.59-7.313 6.422-7.787 1.213-.149 2.373.018 3.41.439v-18.795l-18 3.348v23.48h-.035c.008.066.025.127.025.193.291 3.828-2.584 7.309-6.416 7.787-3.84.475-7.18-2.241-7.471-6.06-.295-3.828 2.58-7.316 6.416-7.787 1.213-.154 2.373.018 3.41.443v-27.07-.005l26.11-4.46.025-.009v.004l.001-.004-.001.119v34.25h-.035c.012.067.024.123.029.19"/></svg>

<?xml version="1.0" encoding="iso-8859-1"?>
<!-- Generator: Adobe Illustrator 15.0.0, SVG Export Plug-In . SVG Version: 6.00 Build 0)  -->
<!DOCTYPE svg PUBLIC "-//W3C//DTD SVG 1.1//EN" "http://www.w3.org/Graphics/SVG/1.1/DTD/svg11.dtd">
<svg version="1.1" id="Icons" xmlns="http://www.w3.org/2000/svg" xmlns:xlink="http://www.w3.org/1999/xlink" x="0px" y="0px"
	 width="100px" height="100px" viewBox="0 0 100 100" style="enable-background:new 0 0 100 100;" xml:space="preserve">
<path id="iTunes" d="M50,5C25.148,5,5,25.148,5,50s20.148,45,45,45s45-20.148,45-45S74.852,5,50,5z M50,86
	c-19.881,0-36-16.119-36-36s16.119-36,36-36s36,16.119,36,36S69.881,86,50,86z M66.48,62.059c0.289,3.828-2.584,7.313-6.422,7.791
	c-3.832,0.475-7.184-2.24-7.471-6.068c-0.293-3.823,2.59-7.313,6.422-7.787c1.213-0.149,2.373,0.018,3.41,0.439V37.639l-18,3.348
	v23.48h-0.035c0.008,0.066,0.025,0.127,0.025,0.193c0.291,3.828-2.584,7.309-6.416,7.787c-3.84,0.475-7.18-2.241-7.471-6.064
	c-0.295-3.828,2.58-7.316,6.416-7.787c1.213-0.154,2.373,0.018,3.41,0.443V31.974v-0.005l26.113-4.46l0.025-0.009v0.004l0.01-0.004
	l-0.01,0.119v34.25h-0.035C66.463,61.936,66.475,61.992,66.48,62.059z"/>
</svg>
